app/assets/images/icons/active/arrow-right.svg

<?xml version="1.0" encoding="UTF-8" standalone="no"?>
<svg width="32px" height="232px" viewBox="0 0 32 232" version="1.1" xmlns="http://www.w3.org/2000/svg" xmlns:xlink="http://www.w3.org/1999/xlink" xmlns:sketch="http://www.bohemiancoding.com/sketch/ns">
    <title>arrow-right</title>
    <description>Created with Sketch (http://www.bohemiancoding.com/sketch)</description>
    <defs></defs>
    <g id="Functions" stroke="none" stroke-width="1" fill="none" fill-rule="evenodd" sketch:type="MSPage">
        <path d="M27.791,135.250286 L19.097,126.651124 C18.152,125.718625 16.621,125.718625 15.681,126.651124 C14.736,127.583623 14.736,129.098563 15.681,130.027106 L20.201,134.498749 L5.916,134.498749 C4.584,134.498749 3.5,135.565733 3.5,136.887845 C3.5,138.210945 4.584,139.27694 5.916,139.27694 L20.33,139.27694 L15.681,143.877136 C14.736,144.80469 14.736,146.321608 15.681,147.253118 C16.621,148.184627 18.152,148.184627 19.097,147.253118 L27.791,138.654945 C28.267,138.185234 28.5,137.567194 28.5,136.952121 C28.5,136.338036 28.267,135.720985 27.791,135.250286" id="arrow-right--lp-blue" fill="#206FAC" sketch:type="MSShapeGroup"></path>
        <path d="M27.791,95.2502858 L19.097,86.6511241 C18.152,85.7186253 16.621,85.7186253 15.681,86.6511241 C14.736,87.5836229 14.736,89.0985626 15.681,90.0271059 L20.201,94.4987491 L5.916,94.4987491 C4.584,94.4987491 3.5,95.5657334 3.5,96.8878447 C3.5,98.2109448 4.584,99.2769402 5.916,99.2769402 L20.33,99.2769402 L15.681,103.877136 C14.736,104.80469 14.736,106.321608 15.681,107.253118 C16.621,108.184627 18.152,108.184627 19.097,107.253118 L27.791,98.6549447 C28.267,98.1852343 28.5,97.5671943 28.5,96.9521208 C28.5,96.3380363 28.267,95.7209851 27.791,95.2502858" id="arrow-right--white" fill="#FFFFFF" sketch:type="MSShapeGroup"></path>
        <path d="M27.791,55.2502858 L19.097,46.6511241 C18.152,45.7186253 16.621,45.7186253 15.681,46.6511241 C14.736,47.5836229 14.736,49.0985626 15.681,50.0271059 L20.201,54.4987491 L5.916,54.4987491 C4.584,54.4987491 3.5,55.5657334 3.5,56.8878447 C3.5,58.2109448 4.584,59.2769402 5.916,59.2769402 L20.33,59.2769402 L15.681,63.8771357 C14.736,64.8046902 14.736,66.3216076 15.681,67.2531176 C16.621,68.1846275 18.152,68.1846275 19.097,67.2531176 L27.791,58.6549447 C28.267,58.1852343 28.5,57.5671943 28.5,56.9521208 C28.5,56.3380363 28.267,55.7209851 27.791,55.2502858" id="arrow-right--body-grey" fill="#67737B" sketch:type="MSShapeGroup"></path>
        <path d="M27.791,15.2502858 L19.097,6.65112409 C18.152,5.7186253 16.621,5.7186253 15.681,6.65112409 C14.736,7.58362289 14.736,9.0985626 15.681,10.0271059 L20.201,14.4987491 L5.916,14.4987491 C4.584,14.4987491 3.5,15.5657334 3.5,16.8878447 C3.5,18.2109448 4.584,19.2769402 5.916,19.2769402 L20.33,19.2769402 L15.681,23.8771357 C14.736,24.8046902 14.736,26.3216076 15.681,27.2531176 C16.621,28.1846275 18.152,28.1846275 19.097,27.2531176 L27.791,18.6549447 C28.267,18.1852343 28.5,17.5671943 28.5,16.9521208 C28.5,16.3380363 28.267,15.7209851 27.791,15.2502858" id="arrow-right--title-grey" fill="#3A434E" sketch:type="MSShapeGroup"></path>
    </g>
</svg>

<svg width="32" height="232" viewBox="0 0 32 232" xmlns="http://www.w3.org/2000/svg" xmlns:sketch="http://www.bohemiancoding.com/sketch/ns"><title>arrow-right</title><g sketch:type="MSPage" fill="none"><path d="M27.791 135.25l-8.694-8.599c-.945-.932-2.476-.932-3.416 0-.945.932-.945 2.447 0 3.376l4.52 4.472h-14.285c-1.332 0-2.416 1.067-2.416 2.389 0 1.323 1.084 2.389 2.416 2.389h14.414l-4.649 4.6c-.945.928-.945 2.444 0 3.376.94.932 2.471.932 3.416 0l8.694-8.598c.476-.47.709-1.088.709-1.703 0-.614-.233-1.231-.709-1.702" fill="#206FAC" sketch:type="MSShapeGroup"/><path d="M27.791 95.25l-8.694-8.599c-.945-.932-2.476-.932-3.416 0-.945.932-.945 2.447 0 3.376l4.52 4.472h-14.285c-1.332 0-2.416 1.067-2.416 2.389 0 1.323 1.084 2.389 2.416 2.389h14.414l-4.649 4.6c-.945.928-.945 2.444 0 3.376.94.932 2.471.932 3.416 0l8.694-8.598c.476-.47.709-1.088.709-1.703 0-.614-.233-1.231-.709-1.702" fill="#fff" sketch:type="MSShapeGroup"/><path d="M27.791 55.25l-8.694-8.599c-.945-.932-2.476-.932-3.416 0-.945.932-.945 2.447 0 3.376l4.52 4.472h-14.285c-1.332 0-2.416 1.067-2.416 2.389 0 1.323 1.084 2.389 2.416 2.389h14.414l-4.649 4.6c-.945.928-.945 2.444 0 3.376.94.932 2.471.932 3.416 0l8.694-8.598c.476-.47.709-1.088.709-1.703 0-.614-.233-1.231-.709-1.702" fill="#67737B" sketch:type="MSShapeGroup"/><path d="M27.791 15.25l-8.694-8.599c-.945-.932-2.476-.932-3.416 0-.945.932-.945 2.447 0 3.376l4.52 4.472h-14.285c-1.332 0-2.416 1.067-2.416 2.389 0 1.323 1.084 2.389 2.416 2.389h14.414l-4.649 4.6c-.945.928-.945 2.444 0 3.376.94.932 2.471.932 3.416 0l8.694-8.598c.476-.47.709-1.088.709-1.703 0-.614-.233-1.231-.709-1.702" fill="#3A434E" sketch:type="MSShapeGroup"/></g></svg>
